icons/mobile/20/svg/shield-cross-20.svg

<svg width="20" height="20" viewBox="0 0 20 20" fill="none" xmlns="http://www.w3.org/2000/svg">
<path d="M11.2196 8.21991C11.5125 7.92702 11.9873 7.92702 12.2802 8.21991C12.573 8.51281 12.573 8.98759 12.2802 9.28046L11.0604 10.5002L12.2802 11.7199C12.573 12.0128 12.573 12.4876 12.2802 12.7805C11.9873 13.0732 11.5125 13.0732 11.2196 12.7805L9.99988 11.5607L8.78015 12.7805C8.48728 13.0732 8.01247 13.0732 7.71961 12.7805C7.42675 12.4876 7.42683 12.0128 7.71961 11.7199L8.93933 10.5002L7.71961 9.28046C7.42675 8.9876 7.42683 8.51282 7.71961 8.21991C8.0125 7.92702 8.48726 7.92702 8.78015 8.21991L9.99988 9.43964L11.2196 8.21991Z" fill="black"/>
<path fill-rule="evenodd" clip-rule="evenodd" d="M8.61316 3.36054C9.52895 2.84421 10.66 2.87511 11.5477 3.48456L11.9501 3.75312C12.2252 3.93255 12.5151 4.1127 12.8202 4.29023L13.2889 4.55487L13.7909 4.8205C14.2877 5.07492 14.7689 5.2959 15.2274 5.48651L15.4462 5.58905C16.4357 6.10778 16.9964 7.17984 16.8886 8.28046L16.8544 8.51679L16.411 10.9025C16.221 11.9296 15.8692 12.9637 15.2723 13.8693H15.2704C14.2479 15.4201 12.8748 16.7377 11.3798 17.6232C10.5199 18.1325 9.44838 18.1162 8.60144 17.6125C7.1148 16.728 5.7506 15.418 4.7323 13.8752C4.13284 12.9658 3.78152 11.9254 3.59168 10.8937L3.14539 8.46991C2.93016 7.30161 3.48212 6.09775 4.54383 5.53925L4.76355 5.43573C5.26246 5.22823 5.78451 4.98912 6.32215 4.7121L6.32312 4.71112C7.10514 4.30945 7.81001 3.88653 8.4325 3.47187L8.61316 3.36054ZM10.6981 4.71991C10.3216 4.46197 9.84721 4.4284 9.4364 4.62226L9.26453 4.71991C8.5994 5.16298 7.84509 5.61599 7.00769 6.04608L7.00672 6.04511C6.43142 6.34148 5.8739 6.59931 5.33972 6.82148C4.82203 7.03673 4.51295 7.61003 4.62097 8.19745L5.06726 10.6223C5.23142 11.5143 5.52392 12.3507 5.98426 13.049C6.88387 14.4119 8.0859 15.56 9.36902 16.3234C9.75598 16.5533 10.2392 16.5548 10.6151 16.3322C11.9054 15.5679 13.1161 14.4135 14.0194 13.0432C14.4781 12.3471 14.7715 11.5155 14.9354 10.6291L14.9364 10.6281L15.3798 8.24237C15.4807 7.69684 15.2177 7.16251 14.7479 6.9162L14.6512 6.87128C13.9926 6.59745 13.2933 6.2665 12.5692 5.8703C11.8815 5.49431 11.2575 5.10425 10.6981 4.71991Z" fill="black"/>
</svg>

<!-- This Source Code Form is subject to the terms of the Mozilla Public
   - License, v. 2.0. If a copy of the MPL was not distributed with this
   - file, You can obtain one at http://mozilla.org/MPL/2.0/. -->
<svg xmlns="http://www.w3.org/2000/svg" width="20" height="20" fill="none" viewBox="0 0 20 20">
    <path fill="#000" d="M11.22 8.22a.75.75 0 1 1 1.06 1.06l-1.22 1.22 1.22 1.22a.75.75 0 0 1-1.06 1.06L10 11.56l-1.22 1.22a.75.75 0 0 1-1.06-1.06l1.22-1.22-1.22-1.22a.75.75 0 0 1 1.06-1.06L10 9.44z" />
    <path fill="#000" fill-rule="evenodd" d="M8.613 3.36a2.77 2.77 0 0 1 2.935.125l.402.268q.412.27.87.537l.469.265.502.266q.747.38 1.436.666l.22.102c.989.519 1.55 1.59 1.442 2.691l-.035.237-.443 2.386c-.19 1.027-.542 2.06-1.139 2.966h-.002c-1.022 1.551-2.395 2.869-3.89 3.754a2.73 2.73 0 0 1-2.779-.01c-1.486-.885-2.85-2.195-3.869-3.738-.6-.91-.95-1.95-1.14-2.981L3.145 8.47c-.215-1.168.337-2.372 1.399-2.93l.22-.104a21 21 0 0 0 1.558-.724h.001a22 22 0 0 0 2.11-1.24zm2.085 1.36a1.26 1.26 0 0 0-1.262-.098l-.171.098c-.666.443-1.42.896-2.257 1.326h-.001a23 23 0 0 1-1.667.775c-.518.216-.827.789-.719 1.376l.446 2.425c.164.892.457 1.729.917 2.427.9 1.363 2.102 2.511 3.385 3.274.387.23.87.232 1.246.01 1.29-.765 2.501-1.92 3.404-3.29.46-.696.752-1.527.916-2.414h.001l.444-2.387c.1-.545-.162-1.08-.632-1.326l-.097-.045a21.7 21.7 0 0 1-3.953-2.151" clip-rule="evenodd" />
</svg>
